src/images/activate-bot.svg

<svg xmlns="http://www.w3.org/2000/svg" width="80" height="80" viewBox="0 0 80 80" fill="none"><script xmlns=""/>
<g clip-path="url(#clip0_2732_20)">
<mask id="mask0_2732_20" style="mask-type:luminance" maskUnits="userSpaceOnUse" x="0" y="0" width="81" height="81">
<path d="M80.0022 0.00170898H0.00244141V80.0025H80.0022V0.00170898Z" fill="white"/>
</mask>
<g mask="url(#mask0_2732_20)">
<path fill-rule="evenodd" clip-rule="evenodd" d="M76.0015 32.0307V47.9728C76.0015 52.9598 71.9615 57.0018 66.9715 57.0018H13.0315C8.0415 57.0018 4.00146 52.9598 4.00146 47.9728V32.0307C4.00146 27.0437 8.0415 23.0017 13.0315 23.0017H66.9715C71.9615 23.0017 76.0015 27.0437 76.0015 32.0307ZM74.0015 32.0307C74.0015 28.1487 70.8515 25.0017 66.9715 25.0017H13.0315C9.1515 25.0017 6.00147 28.1487 6.00147 32.0307V47.9728C6.00147 51.8548 9.1515 55.0018 13.0315 55.0018H66.9715C70.8515 55.0018 74.0015 51.8548 74.0015 47.9728V32.0307ZM19.0015 36.0017C19.0015 36.7977 19.3214 37.5607 19.8814 38.1227C20.4414 38.6857 21.2015 39.0017 22.0015 39.0017H26.0015C28.7615 39.0017 31.0015 41.2397 31.0015 43.9998V44.0018C31.0015 45.3278 30.4715 46.5998 29.5415 47.5378C28.6015 48.4748 27.3315 49.0018 26.0015 49.0018H25.0015V52.0018C25.0015 52.5538 24.5515 53.0018 24.0015 53.0018C23.4515 53.0018 23.0015 52.5538 23.0015 52.0018V49.0018H22.0015C20.6715 49.0018 19.4014 48.4748 18.4614 47.5378C17.5314 46.5998 17.0015 45.3278 17.0015 44.0018C17.0015 42.6448 19.0015 42.6448 19.0015 44.0018C19.0015 44.7978 19.3214 45.5608 19.8814 46.1228C20.4414 46.6858 21.2015 47.0018 22.0015 47.0018H26.0015C26.8015 47.0018 27.5616 46.6858 28.1216 46.1228C28.6816 45.5608 29.0015 44.7978 29.0015 44.0018V43.9998C29.0015 42.3437 27.6615 41.0018 26.0015 41.0018H22.0015C20.6715 41.0018 19.4014 40.4748 18.4614 39.5378C17.5314 38.5998 17.0015 37.3277 17.0015 36.0017C17.0015 34.6757 17.5314 33.4037 18.4614 32.4657C19.4014 31.5287 20.6715 31.0017 22.0015 31.0017H23.0015V28.0017C23.0015 27.4497 23.4515 27.0017 24.0015 27.0017C24.5515 27.0017 25.0015 27.4497 25.0015 28.0017V31.0017H26.0015C27.3315 31.0017 28.6015 31.5287 29.5415 32.4657C30.4715 33.4037 31.0015 34.6757 31.0015 36.0017C31.0015 36.9447 30.0015 37.0017 30.0015 37.0017C29.7415 37.0017 29.5016 36.9017 29.3216 36.7387C29.1616 36.5997 29.0215 36.3877 29.0015 36.0627V36.0017C29.0015 35.2057 28.6816 34.4427 28.1216 33.8807C27.5616 33.3177 26.8015 33.0017 26.0015 33.0017H22.0015C21.2015 33.0017 20.4414 33.3177 19.8814 33.8807C19.3214 34.4427 19.0015 35.2057 19.0015 36.0017ZM63.0015 35.9997V45.0038C63.0015 46.8598 62.2615 48.6398 60.9515 49.9518C59.6415 51.2648 57.8615 52.0018 56.0015 52.0018C54.1415 52.0018 52.3615 51.2648 51.0515 49.9518C49.7415 48.6398 49.0015 46.8598 49.0015 45.0038V35.9997C49.0015 34.1437 49.7415 32.3637 51.0515 31.0517C52.3615 29.7387 54.1415 29.0017 56.0015 29.0017C57.8615 29.0017 59.6415 29.7387 60.9515 31.0517C62.2615 32.3637 63.0015 34.1437 63.0015 35.9997ZM61.0015 35.9997C61.0015 34.6737 60.4715 33.4027 59.5415 32.4657C58.6015 31.5287 57.3315 31.0017 56.0015 31.0017C54.6715 31.0017 53.4015 31.5287 52.4615 32.4657C51.5315 33.4027 51.0015 34.6737 51.0015 35.9997V45.0038C51.0015 46.3298 51.5315 47.6008 52.4615 48.5378C53.4015 49.4748 54.6715 50.0018 56.0015 50.0018C57.3315 50.0018 58.6015 49.4748 59.5415 48.5378C60.4715 47.6008 61.0015 46.3298 61.0015 45.0038V35.9997ZM43.0015 50.0018H47.0515C47.5715 50.0018 48.0015 50.4298 48.0015 50.9568V51.0468C48.0015 51.5738 47.5715 52.0018 47.0515 52.0018H37.0015C36.4515 52.0018 36.0015 51.5538 36.0015 51.0018C36.0015 50.4498 36.4515 50.0018 37.0015 50.0018H41.0015C41.0015 46.0678 41.0015 31.8707 41.0015 31.8707L36.5515 34.8337C36.1015 35.1397 35.4714 35.0157 35.1714 34.5567C34.8614 34.0967 34.9914 33.4757 35.4514 33.1697L41.4514 29.1697C41.7514 28.9647 42.1515 28.9457 42.4715 29.1197C42.8015 29.2937 43.0015 29.6327 43.0015 30.0017V50.0018ZM60.0015 5.60061V14.4026C60.0015 17.4947 57.4914 20.0017 54.4014 20.0017H25.6016C22.5116 20.0017 20.0015 17.4947 20.0015 14.4026V5.60061C20.0015 2.5086 22.5116 0.00158691 25.6016 0.00158691H54.4014C57.4914 0.00158691 60.0015 2.5086 60.0015 5.60061ZM58.0015 5.60061C58.0015 3.6126 56.3914 2.0016 54.4014 2.0016H25.6016C23.6116 2.0016 22.0015 3.6126 22.0015 5.60061V14.4026C22.0015 16.3907 23.6116 18.0017 25.6016 18.0017H54.4014C56.3914 18.0017 58.0015 16.3907 58.0015 14.4026V5.60061ZM40.8516 5.47161L45.8516 13.4716C46.0416 13.7796 46.0514 14.1686 45.8814 14.4866C45.7014 14.8046 45.3615 15.0016 45.0015 15.0016H35.0015C34.6415 15.0016 34.3016 14.8046 34.1216 14.4866C33.9516 14.1686 33.9614 13.7796 34.1514 13.4716L39.1514 5.47161C39.3414 5.17961 39.6615 5.00161 40.0015 5.00161C40.3515 5.00161 40.6616 5.17961 40.8516 5.47161ZM40.0015 7.88861L36.8015 13.0016H43.2014L40.0015 7.88861ZM60.0015 74.4029C60.0015 77.4949 57.4914 80.0019 54.4014 80.0019H25.6016C22.5116 80.0019 20.0015 77.4949 20.0015 74.4029V65.6009C20.0015 62.5088 22.5116 60.0018 25.6016 60.0018H54.4014C57.4914 60.0018 60.0015 62.5088 60.0015 65.6009V74.4029ZM58.0015 74.4029V65.6009C58.0015 63.6128 56.3914 62.0018 54.4014 62.0018H25.6016C23.6116 62.0018 22.0015 63.6128 22.0015 65.6009V74.4029C22.0015 76.3909 23.6116 78.0019 25.6016 78.0019H54.4014C56.3914 78.0019 58.0015 76.3909 58.0015 74.4029ZM39.1514 74.5319L34.1514 66.5319C33.9614 66.2239 33.9516 65.8349 34.1216 65.5169C34.3016 65.1989 34.6415 65.0019 35.0015 65.0019H45.0015C45.3615 65.0019 45.7014 65.1989 45.8814 65.5169C46.0514 65.8349 46.0416 66.2239 45.8516 66.5319L40.8516 74.5319C40.6616 74.8239 40.3515 75.0019 40.0015 75.0019C39.6615 75.0019 39.3414 74.8239 39.1514 74.5319ZM40.0015 72.1149L43.2014 67.0019H36.8015L40.0015 72.1149Z" fill="url(#paint0_linear_2732_20)"/>
</g>
</g>
<defs>
<linearGradient id="paint0_linear_2732_20" x1="53.0015" y1="54.0018" x2="16.0013" y2="10.0017" gradientUnits="userSpaceOnUse">
<stop stop-color="#0054FA"/>
<stop offset="1" stop-color="#0099FA"/>
</linearGradient>
<clipPath id="clip0_2732_20">
<rect width="80" height="80" fill="white"/>
</clipPath>
</defs>
<script xmlns=""/></svg>

<svg xmlns="http://www.w3.org/2000/svg" width="80" height="80" fill="none"><script/><g clip-path="url(#a)"><mask id="b" style="mask-type:luminance" maskUnits="userSpaceOnUse" x="0" y="0" width="81" height="81"><path d="M80.002.002h-80v80h80v-80z" fill="#fff"/></mask><g mask="url(#b)"><path fill-rule="evenodd" clip-rule="evenodd" d="M76.001 32.03v15.943a9.027 9.027 0 0 1-9.03 9.029h-53.94a9.027 9.027 0 0 1-9.03-9.03V32.032a9.027 9.027 0 0 1 9.03-9.03h53.94c4.99 0 9.03 4.043 9.03 9.03zm-2 0a7.031 7.031 0 0 0-7.03-7.028h-53.94a7.031 7.031 0 0 0-7.03 7.029v15.942a7.031 7.031 0 0 0 7.03 7.029h53.94c3.88 0 7.03-3.147 7.03-7.03V32.032zm-55 3.972c0 .796.32 1.559.88 2.12.56.564 1.32.88 2.12.88h4a5 5 0 0 1 5 4.998v.002a5.03 5.03 0 0 1-1.46 3.536 5.01 5.01 0 0 1-3.54 1.464h-1v3c0 .552-.45 1-1 1s-1-.448-1-1v-3h-1a5.01 5.01 0 0 1-3.54-1.464 5.03 5.03 0 0 1-1.46-3.536c0-1.357 2-1.357 2 0 0 .796.32 1.559.88 2.12.56.564 1.32.88 2.12.88h4c.8 0 1.56-.316 2.12-.88a3.01 3.01 0 0 0 .88-2.12V44a2.997 2.997 0 0 0-3-2.998h-4a5.01 5.01 0 0 1-3.54-1.464 5.03 5.03 0 0 1-1.46-3.536 5.03 5.03 0 0 1 1.46-3.536 5.01 5.01 0 0 1 3.54-1.464h1v-3c0-.552.45-1 1-1s1 .448 1 1v3h1c1.33 0 2.6.527 3.54 1.464a5.03 5.03 0 0 1 1.46 3.536c0 .943-1 1-1 1-.26 0-.5-.1-.68-.263a.934.934 0 0 1-.32-.676v-.061a3.01 3.01 0 0 0-.88-2.121 2.984 2.984 0 0 0-2.12-.88h-4c-.8 0-1.56.317-2.12.88a3.01 3.01 0 0 0-.88 2.12zm44-.002v9.004c0 1.856-.74 3.636-2.05 4.948a6.988 6.988 0 0 1-4.95 2.05c-1.86 0-3.64-.737-4.95-2.05a7.007 7.007 0 0 1-2.05-4.948V36c0-1.856.74-3.636 2.05-4.948a6.988 6.988 0 0 1 4.95-2.05c1.86 0 3.64.737 4.95 2.05A7.007 7.007 0 0 1 63.002 36zm-2 0c0-1.326-.53-2.597-1.46-3.534a5.01 5.01 0 0 0-7.08 0A5.024 5.024 0 0 0 51.002 36v9.004c0 1.326.53 2.597 1.46 3.534a5.01 5.01 0 0 0 7.08 0 5.024 5.024 0 0 0 1.46-3.534V36zm-18 14.002h4.05c.52 0 .95.428.95.955v.09c0 .527-.43.955-.95.955h-10.05c-.55 0-1-.448-1-1s.45-1 1-1h4V31.87l-4.45 2.963a.993.993 0 0 1-1.38-.277.997.997 0 0 1 .28-1.387l6-4c.3-.205.7-.224 1.02-.05.33.174.53.513.53.882v20zm17-44.401v8.802c0 3.092-2.51 5.599-5.6 5.599h-28.8c-3.09 0-5.6-2.507-5.6-5.6V5.602a5.602 5.602 0 0 1 5.6-5.6h28.8c3.09 0 5.6 2.508 5.6 5.6zm-2 0a3.598 3.598 0 0 0-3.6-3.6h-28.8c-1.99 0-3.6 1.612-3.6 3.6v8.802c0 1.988 1.61 3.599 3.6 3.599h28.8c1.99 0 3.6-1.611 3.6-3.6V5.602zm-17.15-.13 5 8c.19.309.2.698.03 1.016-.18.318-.52.515-.88.515h-10c-.36 0-.7-.197-.88-.515-.17-.318-.16-.707.03-1.015l5-8c.19-.292.51-.47.85-.47.35 0 .66.178.85.47zm-.85 2.418-3.2 5.113h6.4l-3.2-5.113zm20 66.514a5.602 5.602 0 0 1-5.6 5.599h-28.8c-3.09 0-5.6-2.507-5.6-5.6v-8.801c0-3.092 2.51-5.6 5.6-5.6h28.8c3.09 0 5.6 2.508 5.6 5.6v8.802zm-2 0V65.6c0-1.988-1.61-3.6-3.6-3.6h-28.8c-1.99 0-3.6 1.612-3.6 3.6v8.802a3.598 3.598 0 0 0 3.6 3.599h28.8c1.99 0 3.6-1.611 3.6-3.6zm-18.85.129-5-8c-.19-.308-.2-.697-.03-1.015.18-.318.52-.515.88-.515h10c.36 0 .7.197.88.515.17.318.16.707-.03 1.015l-5 8c-.19.292-.5.47-.85.47-.34 0-.66-.178-.85-.47zm.85-2.417 3.2-5.113h-6.4l3.2 5.113z" fill="url(#c)"/></g></g><defs><linearGradient id="c" x1="53.002" y1="54.002" x2="16.001" y2="10.002" gradientUnits="userSpaceOnUse"><stop stop-color="#0054FA"/><stop offset="1" stop-color="#0099FA"/></linearGradient><clipPath id="a"><path fill="#fff" d="M0 0h80v80H0z"/></clipPath></defs><script/></svg>
